src/assets/images/waving_mascot.svg

<svg xmlns="http://www.w3.org/2000/svg" fill="none">
  <path fill="#363636" d="M252.325 345.444c3.761.193 6.381 3.812 5.391 7.445a5.903 5.903 0 0 1-5.883 4.346l-87.474-2.81a43.221 43.221 0 0 1-26.523-10.198l-76.07-64.329a4.888 4.888 0 0 1-1.203-5.943c1.392-2.745 4.942-3.536 7.367-1.643l85.416 66.668a7.638 7.638 0 0 0 4.303 1.605l94.676 4.859Z"/>
  <path fill="#363636" d="M69.035 250.725c2.342 11.705-1.888 27.605-12.216 29.671-10.327 2.066-22.841-10.485-25.183-22.189-2.341-11.705 4.133-22.868 14.46-24.934 10.328-2.066 20.598 5.748 22.94 17.452Z"/>
  <path fill="#363636" d="M76.016 272.666c-8.196 8.678-23.01 9.604-29.136 3.818-6.126-5.785-4.447-17.51 3.749-26.187 8.196-8.678 19.805-11.023 25.93-5.238 6.126 5.786 7.653 18.93-.543 27.607Z"/>
  <path fill="#FDDA88" d="M203.37 72.651a13.698 13.698 0 0 0-10.279 9.014L147.975 215.09a13.673 13.673 0 0 0 2.682 13.407l92.971 105.804a13.704 13.704 0 0 0 12.955 4.366l138.115-27.629a13.693 13.693 0 0 0 10.252-9.008l45.099-133.509a13.672 13.672 0 0 0-2.682-13.407l-92.954-105.72a13.703 13.703 0 0 0-12.928-4.372L203.37 72.651Z"/>
  <path fill="#39B5AC" d="M258.425 347.146a14.035 14.035 0 0 0-10.423 9.156l-45.804 135.426a14.035 14.035 0 0 0 2.721 13.599l94.369 107.356a13.866 13.866 0 0 0 13.143 4.443l140.18-28.041a13.872 13.872 0 0 0 10.394-9.151l45.81-135.398a14.036 14.036 0 0 0-2.72-13.599l-94.376-107.384a14.04 14.04 0 0 0-13.115-4.449l-140.179 28.042Z"/>
  <path fill="#363636" d="m452.164 599.88-138.032 27.612c-4.284.849-8.716.56-12.854-.837a24.994 24.994 0 0 1-10.728-7.129l-93.081-105.782a24.953 24.953 0 0 1-4.885-24.418l45.143-133.432a24.99 24.99 0 0 1 18.703-16.425l138.115-27.628a24.928 24.928 0 0 1 23.555 7.971l92.998 105.799a24.953 24.953 0 0 1 4.885 24.418L470.84 583.461a24.934 24.934 0 0 1-18.676 16.419ZM258.716 350.464a13.693 13.693 0 0 0-10.279 9.014l-45.199 133.443a13.667 13.667 0 0 0 2.682 13.407l92.971 105.803a13.706 13.706 0 0 0 12.956 4.366l138.114-27.628a13.713 13.713 0 0 0 6.328-3.137 13.714 13.714 0 0 0 3.924-5.871l45.144-133.432a13.813 13.813 0 0 0-2.682-13.407l-92.999-105.798a13.701 13.701 0 0 0-12.928-4.371l-138.032 27.611Z"/>
  <path fill="#363636" d="m396.726 322.743-138.032 27.612a24.995 24.995 0 0 1-23.583-7.967L142.03 236.607a24.96 24.96 0 0 1-4.885-24.419l45.144-133.432a24.99 24.99 0 0 1 18.786-16.441l138.114-27.628a24.933 24.933 0 0 1 23.555 7.971l92.999 105.798a24.96 24.96 0 0 1 4.884 24.419l-45.143 133.432a24.928 24.928 0 0 1-18.758 16.436ZM203.277 73.327a13.703 13.703 0 0 0-10.279 9.013L147.8 215.783a13.682 13.682 0 0 0-.456 7.063 13.681 13.681 0 0 0 3.137 6.344l92.972 105.804a13.698 13.698 0 0 0 12.955 4.365l138.115-27.628a13.7 13.7 0 0 0 10.252-9.008l45.143-133.432a13.812 13.812 0 0 0-2.682-13.407L354.238 50.086a13.703 13.703 0 0 0-12.928-4.371L203.277 73.327Z"/>
  <path fill="#363636" d="M414.906 329.041a5.612 5.612 0 0 1-5.341-1.794 24.904 24.904 0 0 1-4.879-24.392 5.622 5.622 0 0 1 10.654 3.595 13.619 13.619 0 0 0 2.677 13.38 5.625 5.625 0 0 1 1.39 4.085 5.615 5.615 0 0 1-1.919 3.865 5.598 5.598 0 0 1-2.582 1.261Z"/>
  <path fill="#363636" d="M418.026 327.214a7.041 7.041 0 0 1-5.962-3.961l-4.707-9.716 99.615 4.115 3.177-.031c21.6-.213 34.763 23.684 23.041 41.827l-26.975 51.844c-1.588 3.054-5.667 3.722-8.147 1.334a5.154 5.154 0 0 1-1.168-5.728l26.553-62.494a7.04 7.04 0 0 0 .512-3.573l-.099-.842a7.039 7.039 0 0 0-3.803-5.456l-2.852-1.449a7.036 7.036 0 0 0-2.816-.754l-96.369-5.116Z"/>
  <path fill="#363636" d="M497.067 414.441c-6.96-8.539-18.571-17.943-12.523-22.873 6.049-4.93 20.29 1.04 27.25 9.58 6.961 8.54 7.7 19.459 1.651 24.388-6.048 4.93-9.418-2.555-16.378-11.095Z"/>
  <path stroke="#363636" stroke-width="7.237" d="M287.994 187.594c4.481 22.398-9.084 43.64-29.804 47.785-20.72 4.145-41.413-10.245-45.893-32.643-4.481-22.398 9.084-43.641 29.804-47.786 20.72-4.144 41.413 10.245 45.893 32.644ZM384.744 167.01c4.48 22.398-9.085 43.641-29.805 47.786-20.72 4.145-41.413-10.245-45.893-32.643-4.481-22.399 9.084-43.641 29.804-47.786 20.721-4.145 41.413 10.245 45.894 32.643Z"/>
  <path fill="#363636" stroke="#363636" stroke-width="1.206" d="M279.679 173.702a2.95 2.95 0 0 1 .964-2.812l9.23-7.969a6.637 6.637 0 0 1 6.85-1.118l9.592 3.929a2.834 2.834 0 0 1 1.705 2.067c.424 2.118-1.581 3.913-3.639 3.258l-6.049-1.924a7.786 7.786 0 0 0-6.995 1.164l-7.008 5.196c-1.738 1.289-4.226.33-4.65-1.791Z"/>
  <path stroke="#363636" stroke-linecap="round" stroke-width="2.412" d="m289.519 253.713 11.685 5.027a16.884 16.884 0 0 0 15.192-.931l10.248-5.987"/>
  <path stroke="#363636" stroke-linecap="round" stroke-width="3.619" d="M201.428 153.384c13.853-10.728 28.281-20.655 45.348-23.868M315.618 120.183c8.223-4.433 19.607-7.378 29.175-6.262.896.104 7.094 1.35 5.574 1.447"/>
  <path fill="#363636" stroke="#363636" stroke-width="1.206" d="M262.144 194.039c.333.39.451.762.452 1.082 0 .325-.121.646-.354.931-.472.577-1.388.972-2.444.783l-8.686-1.547a4.218 4.218 0 0 0-3.023.605l-7.422 4.769c-.903.581-1.9.569-2.557.218a1.466 1.466 0 0 1-.685-.724c-.123-.295-.156-.684 0-1.173.421-1.312 1.111-2.587 2.058-3.761 2.121-2.631 5.353-4.531 8.992-5.259 3.639-.728 7.353-.217 10.323 1.395 1.326.72 2.453 1.631 3.346 2.681ZM357.002 176.294c.332.39.451.762.451 1.082 0 .324-.12.646-.354.931-.472.577-1.387.972-2.444.783l-8.686-1.547a4.218 4.218 0 0 0-3.023.605l-7.422 4.769c-.903.58-1.9.569-2.557.218a1.466 1.466 0 0 1-.685-.724c-.123-.295-.156-.685 0-1.173.421-1.312 1.111-2.587 2.058-3.761 2.122-2.631 5.353-4.532 8.992-5.259 3.639-.728 7.353-.218 10.323 1.395 1.326.72 2.453 1.631 3.347 2.681Z"/>
</svg>

<svg fill="none"
  xmlns="http://www.w3.org/2000/svg">
  <path d="M252.325 345.444C256.086 345.637 258.706 349.256 257.716 352.889C256.997 355.525 254.563 357.322 251.833 357.235L164.359 354.425C154.622 354.112 145.275 350.519 137.836 344.227L61.7664 279.898C60.0366 278.435 59.5385 275.975 60.563 273.955C61.9545 271.21 65.505 270.419 67.9305 272.312L153.346 338.98C154.582 339.944 156.084 340.504 157.649 340.585L252.325 345.444Z" fill="#363636"/>
  <path d="M69.0354 250.725C71.3767 262.43 67.1468 278.33 56.8193 280.396C46.4919 282.462 33.9776 269.911 31.6362 258.207C29.2949 246.502 35.7689 235.339 46.0964 233.273C56.4239 231.207 66.6941 239.021 69.0354 250.725Z" fill="#363636"/>
  <path d="M76.016 272.666C67.8201 281.344 53.0053 282.27 46.8797 276.484C40.7542 270.699 42.4326 258.974 50.6286 250.297C58.8245 241.619 70.4343 239.274 76.5598 245.059C82.6853 250.845 84.2119 263.989 76.016 272.666Z" fill="#363636"/>
  <path d="M203.37 72.6514C201.017 73.1222 198.83 74.2026 197.026 75.7844C195.222 77.3662 193.865 79.394 193.091 81.6649L147.975 215.091C147.206 217.365 147.049 219.801 147.519 222.154C147.99 224.507 149.072 226.695 150.657 228.498L243.628 334.302C245.216 336.1 247.249 337.45 249.522 338.216C251.796 338.982 254.231 339.138 256.583 338.668L394.698 311.039C397.045 310.565 399.227 309.483 401.025 307.903C402.824 306.322 404.177 304.298 404.95 302.031L450.049 168.522C450.818 166.249 450.975 163.813 450.505 161.46C450.034 159.106 448.952 156.918 447.367 155.115L354.413 49.3943C352.828 47.5995 350.8 46.2515 348.532 45.4845C346.263 44.7175 343.834 44.5585 341.485 45.0231L203.37 72.6514Z" fill="#FDDA88"/>
  <path d="M258.425 347.146C256.043 347.638 253.83 348.741 252.003 350.347C250.176 351.952 248.797 354.004 248.002 356.302L202.198 491.728C201.435 494.036 201.285 496.503 201.762 498.887C202.238 501.271 203.326 503.49 204.919 505.327L299.288 612.683C300.896 614.513 302.957 615.886 305.264 616.666C307.571 617.446 310.043 617.605 312.431 617.126L452.611 589.085C454.993 588.604 457.208 587.506 459.032 585.9C460.856 584.294 462.227 582.236 463.005 579.934L508.815 444.536C509.578 442.228 509.729 439.761 509.252 437.377C508.775 434.993 507.687 432.774 506.095 430.937L411.719 323.553C410.104 321.741 408.047 320.378 405.748 319.599C403.45 318.819 400.988 318.649 398.604 319.104L258.425 347.146Z" fill="#39B5AC"/>
  <path d="M452.164 599.88L314.132 627.492C309.848 628.341 305.416 628.052 301.278 626.655C297.141 625.257 293.442 622.799 290.55 619.526L197.469 513.744C194.588 510.458 192.62 506.473 191.763 502.188C190.906 497.903 191.189 493.467 192.584 489.326L237.727 355.894C239.138 351.76 241.606 348.069 244.888 345.187C248.17 342.305 252.149 340.333 256.43 339.469L394.545 311.841C398.826 310.992 403.254 311.281 407.387 312.68C411.521 314.079 415.215 316.538 418.1 319.812L511.098 425.611C513.979 428.897 515.947 432.882 516.804 437.167C517.661 441.452 517.378 445.888 515.983 450.029L470.84 583.461C469.436 587.593 466.972 591.284 463.695 594.165C460.418 597.047 456.442 599.017 452.164 599.88ZM258.716 350.464C256.363 350.935 254.175 352.015 252.372 353.597C250.568 355.179 249.211 357.207 248.437 359.478L203.238 492.921C202.469 495.194 202.312 497.63 202.783 499.983C203.253 502.337 204.335 504.525 205.92 506.328L298.891 612.131C300.479 613.93 302.512 615.279 304.785 616.046C307.059 616.812 309.494 616.967 311.847 616.497L449.961 588.869C452.308 588.394 454.49 587.312 456.289 585.732C458.087 584.151 459.44 582.127 460.213 579.861L505.357 446.429C506.111 444.153 506.261 441.721 505.791 439.37C505.321 437.02 504.247 434.832 502.675 433.022L409.676 327.224C408.091 325.429 406.063 324.081 403.795 323.314C401.527 322.547 399.097 322.388 396.748 322.853L258.716 350.464Z" fill="#363636"/>
  <path d="M396.726 322.743L258.694 350.355C254.409 351.203 249.978 350.915 245.84 349.517C241.702 348.119 238.003 345.661 235.111 342.388L142.03 236.607C139.149 233.32 137.182 229.335 136.325 225.05C135.468 220.765 135.751 216.33 137.145 212.188L182.289 78.7562C183.704 74.6092 186.184 70.9071 189.481 68.0213C192.779 65.1356 196.777 63.1676 201.075 62.3149L339.189 34.6866C343.47 33.8376 347.898 34.1271 352.032 35.526C356.165 36.9249 359.859 39.3843 362.744 42.6583L455.743 148.456C458.623 151.743 460.591 155.728 461.448 160.013C462.305 164.298 462.022 168.733 460.627 172.875L415.484 306.307C414.076 310.452 411.601 314.154 408.308 317.039C405.015 319.924 401.02 321.892 396.726 322.743ZM203.277 73.3266C200.925 73.7974 198.737 74.8778 196.933 76.4596C195.129 78.0414 193.772 80.0692 192.998 82.3402L147.8 215.783C147.031 218.057 146.874 220.492 147.344 222.846C147.815 225.199 148.897 227.387 150.481 229.19L243.453 334.994C245.041 336.792 247.073 338.142 249.347 338.908C251.621 339.674 254.056 339.83 256.408 339.359L394.523 311.731C396.87 311.256 399.051 310.175 400.85 308.594C402.649 307.014 404.002 304.989 404.775 302.723L449.918 169.291C450.673 167.016 450.823 164.583 450.352 162.233C449.882 159.882 448.808 157.694 447.236 155.884L354.238 50.0861C352.653 48.2913 350.625 46.9432 348.357 46.1762C346.088 45.4093 343.658 45.2502 341.31 45.7149L203.277 73.3266Z" fill="#363636"/>
  <path d="M414.906 329.041C413.937 329.239 412.932 329.178 411.994 328.862C411.056 328.547 410.218 327.99 409.565 327.247C406.685 323.965 404.718 319.985 403.862 315.704C403.006 311.423 403.29 306.992 404.686 302.855C405.163 301.442 406.181 300.277 407.517 299.615C408.854 298.953 410.398 298.849 411.811 299.326C413.224 299.802 414.389 300.821 415.051 302.157C415.713 303.493 415.817 305.037 415.34 306.45C414.57 308.719 414.412 311.15 414.882 313.499C415.352 315.849 416.433 318.032 418.017 319.83C418.506 320.385 418.881 321.032 419.12 321.733C419.359 322.435 419.456 323.176 419.407 323.915C419.358 324.654 419.163 325.376 418.834 326.039C418.505 326.703 418.047 327.295 417.488 327.78C416.752 328.418 415.862 328.852 414.906 329.041Z" fill="#363636"/>
  <path d="M418.026 327.214C415.466 327.078 413.182 325.56 412.064 323.253L407.357 313.537L506.972 317.652L510.149 317.621C531.749 317.408 544.912 341.305 533.19 359.448L506.215 411.292C504.627 414.346 500.548 415.014 498.068 412.626C496.529 411.143 496.064 408.865 496.9 406.898L523.453 344.404C523.931 343.278 524.108 342.046 523.965 340.831L523.866 339.989C523.592 337.648 522.164 335.601 520.063 334.533L517.211 333.084C516.336 332.639 515.376 332.382 514.395 332.33L418.026 327.214Z" fill="#363636"/>
  <path d="M497.067 414.441C490.107 405.902 478.496 396.498 484.544 391.568C490.593 386.638 504.834 392.608 511.794 401.148C518.755 409.688 519.494 420.607 513.445 425.536C507.397 430.466 504.027 422.981 497.067 414.441Z" fill="#363636"/>
  <path d="M287.994 187.594C292.475 209.992 278.91 231.234 258.19 235.379C237.47 239.524 216.777 225.134 212.297 202.736C207.816 180.338 221.381 159.095 242.101 154.95C262.821 150.806 283.514 165.195 287.994 187.594Z" stroke="#363636" stroke-width="7.23713"/>
  <path d="M384.744 167.01C389.224 189.408 375.659 210.651 354.939 214.796C334.219 218.941 313.526 204.551 309.046 182.153C304.565 159.754 318.13 138.512 338.85 134.367C359.571 130.222 380.263 144.612 384.744 167.01Z" stroke="#363636" stroke-width="7.23713"/>
  <path d="M279.679 173.702C279.47 172.659 279.839 171.585 280.643 170.89L289.873 162.921C291.764 161.289 294.412 160.857 296.723 161.803L306.315 165.732C307.194 166.092 307.834 166.868 308.02 167.799C308.444 169.917 306.439 171.712 304.381 171.057L298.332 169.133C295.949 168.375 293.347 168.808 291.337 170.297L284.329 175.493C282.591 176.782 280.103 175.823 279.679 173.702Z" fill="#363636" stroke="#363636" stroke-width="1.20619"/>
  <path d="M289.519 253.713L301.204 258.74C306.129 260.859 311.767 260.514 316.396 257.809L326.644 251.822" stroke="#363636" stroke-width="2.41238" stroke-linecap="round"/>
  <path d="M201.428 153.384C215.281 142.656 229.709 132.729 246.776 129.516" stroke="#363636" stroke-width="3.61856" stroke-linecap="round"/>
  <path d="M315.618 120.183C323.841 115.75 335.225 112.805 344.793 113.921C345.689 114.025 351.887 115.271 350.367 115.368" stroke="#363636" stroke-width="3.61856" stroke-linecap="round"/>
  <path d="M262.144 194.039C262.477 194.429 262.595 194.801 262.596 195.121C262.596 195.446 262.475 195.767 262.242 196.052C261.77 196.629 260.854 197.024 259.798 196.835L251.112 195.288C250.064 195.101 248.985 195.317 248.089 195.893L240.667 200.662C239.764 201.243 238.767 201.231 238.11 200.88C237.785 200.706 237.549 200.456 237.425 200.156C237.302 199.861 237.269 199.472 237.425 198.983C237.846 197.671 238.536 196.396 239.483 195.222C241.604 192.591 244.836 190.691 248.475 189.963C252.114 189.235 255.828 189.746 258.798 191.358C260.124 192.078 261.251 192.989 262.144 194.039Z" fill="#363636" stroke="#363636" stroke-width="1.20619"/>
  <path d="M357.002 176.294C357.334 176.684 357.453 177.056 357.453 177.376C357.453 177.7 357.333 178.022 357.099 178.307C356.627 178.884 355.712 179.279 354.655 179.09L345.969 177.543C344.921 177.356 343.842 177.572 342.946 178.148L335.524 182.917C334.621 183.497 333.624 183.486 332.967 183.135C332.642 182.961 332.406 182.711 332.282 182.411C332.159 182.116 332.126 181.726 332.282 181.238C332.703 179.926 333.393 178.651 334.34 177.477C336.462 174.846 339.693 172.945 343.332 172.218C346.971 171.49 350.685 172 353.655 173.613C354.981 174.333 356.108 175.244 357.002 176.294Z" fill="#363636" stroke="#363636" stroke-width="1.20619"/>
</svg>
